X:1
T:Title
%%score { ( 1 3 ) | 2 }
L:1/8
M:4/4
K:Ab
V:1 treble nm="Grand Piano"
V:3 treble 
V:2 bass 
V:1
 z4 z2[Q:1/4=96] [CE][CA] | [Ec]>[Ec] [Ec][Ec] [DB][CA][CE][CE] |[M:3/4] [DF][FA] [FA]>[DF] [CE]2 | %3
[M:1/4] [CA][DB] |[M:4/4] [Ec]>[Ec] [Ec][Ec] ecAc |[M:7/8] [GB]>[FA][GB] [Ac] [GB]3 |[M:1/4] EA | %7
[M:4/4] c>c cc [DB][CA][CE][CE] |[M:3/4] [DF][FA] [FA]>[DF] [CE]2 |[M:1/4] Ac | %10
[M:4/4] e>e ef ecAB |[M:7/8] cc[EGB] [DEB] [CEA]3 |[M:1/4] c>d |[M:4/4] e6 z2 | %14
[M:3/4] [CA]4[K:bass] [CE]2 |[M:1/4][K:treble] c>d |[M:4/4] e3 f e2 [EAc]2 | %17
 [EB]2- [E-GB-]>[E-GB-] [E-GB-][EGB] [Ae]>[Gd] | A2 z2 z4 | [CE]4 [EA]2 z2 | B3 A c2 B2 | %21
[M:3/4] [CEA]6 |] %22
V:2
 z4 z2 [A,,A,][A,,A,] | [A,,A,]>[A,,A,] [A,,A,][A,,A,] [A,,E,][A,,E,][A,,A,][A,,A,] | %2
[M:3/4] [D,A,][D,D] [D,D]>[D,A,] [A,,A,]2 |[M:1/4] [A,,A,][A,,A,] | %4
[M:4/4] [A,,A,]>[A,,A,] [A,,A,][A,,A,][K:treble] [A,CA][A,EA][A,CE][A,EA] | %5
[M:7/8][K:bass] [E,E]>[E,E][E,E] [E,E] [E,E]3 |[M:1/4] [A,C][A,C] | %7
[M:4/4] [A,E]>[A,E] [A,E][A,E] [A,,E,][A,,E,][A,,A,][A,,A,] | %8
[M:3/4] [D,A,][D,D] [D,D]>[D,A,] [A,,A,]2 |[M:1/4][K:treble] [A,C][A,E] | %10
[M:4/4] [A,CA]>[A,CA] [A,CA][A,DA] [A,CA][K:bass][A,E][A,CE][E,DE] | %11
[M:7/8][K:treble] [A,EA][A,EA][K:bass]E, E, A,,3 |[M:1/4][K:treble] [A,A]>[A,B,A] | %13
[M:4/4] [A,CA][A,C][A,C][A,C] [A,C][A,CA] z2 |[M:3/4][K:bass] [A,,E,]A,, A,,A,, A,,A,, | %15
[M:1/4][K:treble] [A,A]>[A,B,A] |[M:4/4] [A,CA]3 [A,DA] [A,CA]2[K:bass] A,,2 | %17
 E,2 E,>F, E,D, [C,A,]>[B,,E,] | [A,,E,]2 [A,,A,][A,,A,] [A,,A,][A,,A,] [D,A,]>[D,A,] | %19
 [A,,A,]A,,A,,A,, A,,A,, [E,B,E]>[E,CE] | [E,DE]3 [E,CE] [E,E]2 [E,DE]2 |[M:3/4] [A,,A,]6 |] %22
V:3
 x8 | x8 |[M:3/4] x6 |[M:1/4] x2 |[M:4/4] x8 |[M:7/8] x7 |[M:1/4] x2 |[M:4/4] x8 |[M:3/4] x6 | %9
[M:1/4] x2 |[M:4/4] x8 |[M:7/8] x7 |[M:1/4] x2 |[M:4/4] z AAA Ad c>B | %14
[M:3/4] z[K:bass] E, E,E, A,A, |[M:1/4][K:treble] x2 |[M:4/4] x8 | G2 z2 z4 | %18
 c2- [Ec-][Ec-] [Ec][EB] [FA]>[DF] | z A,A,A, CC G>A | x8 |[M:3/4] x6 |] %22

